X:288
T:Willie Riley
B:Joyce, P. W.; "Old Irish Folk Music and Songs"
H:To be distinguished from the air of the well-known song "Come, rise up,
H:Willie Reilly," for which see farther on.
N:See #286 for further history
A:Kilkenny
O:Irish
R:song air
L:1/8
M:3/4
K:G
"With feeling."\
BA|\
G2g2 fd|e2d2 BG|A2G2G2|G4 {c}BA|G2B2d2|a2a2 ga|b2B2 (3dcB|A4 BA|
G2B2d2|a3a ga|b2B2 dB|A4{c}BA|G2g2 fd|e2d2 BG|{B}A2G2G2|G4||

